X:1
T: Bert McCroskie
C:
R:Reel
Q:232
K:A
M:4/4
L:1/8
|:E|A2AB c2cB|A2AE FE EF|A2AB c2BA|ce af ec Bc|
A2AB c2cB|A2AE FE EF|A2AB ce af|ec Bc A2 ((3efg)|
a2af ef ce|Bc AB c2AB|c2cB ce fg|af ec B2((3efg)|
a2af ef ce|Bc AB c2cB|A2AB ce af|ec Bc A2:|
